X: 29
T: The Merry Pranks of Robin Goodfellow
T: Dulcina
R:march
Z:2009 John Chambers <jc:trillian.mit.edu>
F:http://sniff.numachi.com/pages/tiROBNGOOD;ttROBNGOOD.html 2009-2-17
B:Chappell - Popular Music of the Olden Times  (1859)
S:Pills to Purge Melancholy, 1720
M:C
L:1/8
K:C
[| c2ed  c2G2 | E2C2 G2G2 | g2G2 d2ed | B2AG G4 \
|  c2ed  c2G2 | E2C2 G2G2 | c3G  A2GF | E2DC C4 ||
|| E2A^G A2c2 | c2A2 B2e2 | e2A2 fedc | BcBA A4 \
|  c2ed  c2G2 | E2C2 G2G2 | c3G  A2GF | E2DC C4 ||
%%sep 3 1 500
